X: 4904
T: Nineteen Years
C: Wouter Joubert
R: jig
B: RSCDS 49-4
Z: 2015 by John Chambers <jc:trillian.mit.edu>
N: Tune for the dance Te First Rain of Spring
M: 6/8
L: 1/8
K: Bb
F |\
"Bb"f>dB "F7"cAF | "Bb"B>FD "D/Bb7"B,CD | "Eb"E>FG "F7"FGA | "Bb"B>cd "F7"c2F |\
"Bb"f>dB "F7"cAF | "Bb"B>FD "D/Bb7"B,>A,_A, | "Eb"G,>CE "F7"FAc | "Bb"[B3D3] [B2D2] :|
|: G |\
"F"F>GA "A/F7"Ace | "Bb"d>cB "D/Bb"BFD | "Cm"E>FG "Eb"GBd | "F"c3 "A/F7"f2a |\
"Bb"b>fb "Eb"g>eg | "F/Bb"f>dB "Gm"BA"Bb7"_A | "Eb/Cm7"G>ce "F7"fdc | "Bb"[B3D3] [B2D2] :|
